X:1
T:El Zapateado
T:El Zapateado
T:Cancion popular da Andalucia 
T:arreglado para guitarra por T. Damas
T:by IMSLP
Z:by IMSLP
%%score ( 1 2 )
L:1/8
Q:1/4=150
M:6/8
K:A
V:1 treble transpose=-12 nm="Chitarra" snm="Chit. cl."
V:2 treble transpose=-12 
V:1
"^Vivo" A,EA A,EA |: E,EA EGB | A,EA A,EA | A2 B [Ac]2 d | [ce]fe z aa | a2 b c'2 b | a2 g z bb | %7
 [gb]2 [fa] [fa]2 [eg] | [df]2 [ce] z z2 | A,EA z cc | c2 d e2 d | [Gc][GB] z z AA | A2 B [Ac]2 d | %13
 [ce]fe z aa | a2 b c'2 b | ag z z bb | [gb]2 [fa] [fa]2 [eg] | [df]2 [ce] z cc | [GB]2 c [Gd]2 c | %19
 BAa aaa | [ca]aa [ca]aa | [Bda]gg [Bdg]gg | [Bdg]ff [Bdf]ff | ([Acf]e)e ([Ace]e)e | %24
 [Bdf]ee [Bde]ee | [Acf]ee [Ace]ee | ([GBf]e)e ([Ge]d)d | [Ad]cc [Ac]cc | [Ge]dd [Gd]dc |1,2,3,4 %29
 BAA A,EA :| A2 z [Ac]2 z | A2 z z2 z |] %32
V:2
 A,2 z A,2 z |: E,2 z E2 z | A,2 z A,2 z | A,2 z A,2 z | A,2 z A,2 z | A,2 z A,2 z | E,2 z E,2 z | %7
 E,2 z E,2 z | A,2 z A,EA | A,2 z A,2 z | A,2 z A,2 z | E,2 z E,2 z | A,2 z A,2 z | A,2 z A,2 z | %14
 A,2 z A,2 z | E,2 z E,2 z | E,2 z E,2 z | A,2 z A,2 z | E,2 z E,2 z | A,2 z A,2 z | A,2 z A,2 z | %21
 E,2 z E,2 z | E,2 z E,2 z | A,2 z A,2 z | E,2 z E,2 z | A,2 z A,2 z | E,2 z E,2 z | A,2 z A,2 z | %28
 E,2 z E,2 z |1,2,3,4 A,2 z A,2 z :| A,2 x A,2 x | A,2 x A,2 x |] %32

